svgs/thin/arrow-right-to-bracket.svg

<svg xmlns="http://www.w3.org/2000/svg" viewBox="0 0 512 512"><!--! Font Awesome Pro 6.3.0 by @fontawesome - https://fontawesome.com License - https://fontawesome.com/license (Commercial License) Copyright 2023 Fonticons, Inc. --><path d="M472 32h-80C387.6 32 384 35.58 384 40s3.578 8 8 8h80c13.23 0 24 10.77 24 24v368c0 13.23-10.77 24-24 24h-80c-4.422 0-8 3.578-8 8S387.6 480 392 480h80c22.06 0 40-17.94 40-40V72C512 49.94 494.1 32 472 32zM381.7 250.3l-184-184C196.1 64.78 194.1 64 192 64S187.9 64.78 186.3 66.34c-3.125 3.125-3.125 8.188 0 11.31L356.7 248H8C3.594 248 0 251.6 0 256s3.594 8 8 8h348.7l-170.3 170.3c-3.125 3.125-3.125 8.188 0 11.31C187.9 447.2 189.9 448 192 448s4.094-.7813 5.656-2.344l184-184C383.2 260.1 384 258 384 256S383.2 251.9 381.7 250.3z"/></svg>

<svg xmlns="http://www.w3.org/2000/svg" viewBox="0 0 512 512"><!-- Font Awesome Pro 6.0.0-alpha2 by @fontawesome - https://fontawesome.com License - https://fontawesome.com/license (Commercial License) --><path d="M472 32H392C387.578 32 384 35.578 384 40S387.578 48 392 48H472C485.234 48 496 58.766 496 72V440C496 453.234 485.234 464 472 464H392C387.578 464 384 467.578 384 472S387.578 480 392 480H472C494.062 480 512 462.062 512 440V72C512 49.938 494.062 32 472 32ZM381.656 250.344L197.656 66.344C196.094 64.781 194.062 64 192 64S187.906 64.781 186.344 66.344C183.219 69.469 183.219 74.531 186.344 77.656L356.688 248H8C3.594 248 0 251.578 0 256S3.594 264 8 264H356.688L186.344 434.344C183.219 437.469 183.219 442.531 186.344 445.656C187.906 447.219 189.938 448 192 448S196.094 447.219 197.656 445.656L381.656 261.656C383.219 260.094 384 258.047 384 256S383.219 251.906 381.656 250.344Z"/></svg>
